icon-themes/sifr_svg/cmd/lc_diamode.svg

<svg viewBox="0 0 24 24" xmlns="http://www.w3.org/2000/svg"><path d="m2 2v9h9v-9zm11 0v9h9v-9zm-9 2h5v5h-5zm11 0h5v5h-5zm-13 9v9h9v-9zm11 0v9h9v-9zm-9 2h5v5h-5zm11 0h5v5h-5z" fill="#555753"/></svg>

<svg xmlns="http://www.w3.org/2000/svg" viewBox="0 0 24 24">
  <path
     style="fill:#555753"
     d="m 2,2 v 9 h 9 V 2 Z m 11,0 v 9 h 9 V 2 Z M 4,4 H 9 V 9 H 4 Z m 11,0 h 5 V 9 H 15 Z M 2,13 v 9 h 9 v -9 z m 11,0 v 9 h 9 v -9 z m -9,2 h 5 v 5 H 4 Z m 11,0 h 5 v 5 h -5 z"
     />
</svg>
